X:165
T:Roaring Jelly #2
C:Joe Buchanan's Scottish Tome - Page 263.3-264.1
I:264 1
Z:Carl Allison
R:Jig
L:1/8
M:6/8
K:D
A | DED F2 A | d2 f ecA | G2 B F2 A | E2 F GFE | 
DED F2 A | d2 f ecA | Bgf edc | d3- d2 :| 
fg | a2 f f2 d | A2 a agf | g2 e e2 c | A2 g gfe |
f2 d g2 e | a2 f bag | fed edc | d3 dfg |
aff fdf | Adf agf | gee ece | Ace gfe |
fed gfe | agf bag | fed edc | d3- d2 |] 

